assets/img/braze_icons/refresh-ccw-05.svg

<svg fill="none" height="24" viewBox="0 0 24 24" width="24" xmlns="http://www.w3.org/2000/svg"><g fill="#801ed7"><path d="m21.7656 6.70011c.5335.14294.8501.69128.7071 1.22475-.1429.53346-.6913.85005-1.2247.7071l-.4056-.10866c1.699 4.3052.0365 9.3202-4.0923 11.704-2.7355 1.5793-5.9304 1.6426-8.60911.4542-.50483-.2239-.73252-.8147-.50855-1.3196.22396-.5048.81477-.7325 1.31961-.5085 2.11955.9403 4.63955.888 6.79805-.3582 3.156-1.8221 4.4867-5.5915 3.3507-8.91426l-.0922.34392c-.1429.53344-.6913.85004-1.2247.70714-.5335-.143-.8501-.69132-.7071-1.22478l.732-2.73205c.1429-.53347.6913-.85005 1.2248-.70711z"/><path d="m15.8592 3.31853c.5048.22397.7325.81478.5085 1.31961-.2239.50484-.8147.73252-1.3196.50856-2.1195-.94032-4.6396-.88804-6.79803.35815-3.15599 1.82211-4.4867 5.59155-3.35065 8.91435l.09217-.344c.14294-.5335.69128-.8501 1.22474-.7071.53347.1429.85005.6913.70711 1.2247l-.73205 2.7321c-.14294.5334-.69128.85-1.22475.7071l-2.73205-.7321c-.53346-.1429-.85005-.6912-.7071-1.2247.14294-.5335.69127-.8501 1.22474-.7071l.40549.1086c-1.69895-4.3052-.03643-9.32015 4.09235-11.7039 2.7355-1.57934 5.93033-1.64268 8.60913-.45427z"/></g></svg>

<svg width="24" height="24" viewBox="0 0 24 24" fill="none" xmlns="http://www.w3.org/2000/svg">
<path d="M21.7656 6.70011C22.2991 6.84305 22.6157 7.39139 22.4727 7.92486C22.3298 8.45832 21.7814 8.77491 21.248 8.63196L20.8424 8.5233C22.5414 12.8285 20.8789 17.8435 16.7501 20.2273C14.0146 21.8066 10.8197 21.8699 8.14099 20.6815C7.63616 20.4576 7.40847 19.8668 7.63244 19.3619C7.8564 18.8571 8.44721 18.6294 8.95205 18.8534C11.0716 19.7937 13.5916 19.7414 15.7501 18.4952C18.9061 16.6731 20.2368 12.9037 19.1008 9.58094L19.0086 9.92486C18.8657 10.4583 18.3173 10.7749 17.7839 10.632C17.2504 10.489 16.9338 9.94068 17.0768 9.40722L17.8088 6.67517C17.9517 6.1417 18.5001 5.82512 19.0336 5.96806L21.7656 6.70011Z" fill="#801ED7"/>
<path d="M15.8592 3.31853C16.364 3.5425 16.5917 4.13331 16.3677 4.63814C16.1438 5.14298 15.553 5.37066 15.0481 5.1467C12.9286 4.20638 10.4085 4.25866 8.25007 5.50485C5.09408 7.32696 3.76337 11.0964 4.89942 14.4192L4.99159 14.0752C5.13453 13.5417 5.68287 13.2251 6.21633 13.3681C6.7498 13.511 7.06638 14.0594 6.92344 14.5928L6.19139 17.3249C6.04845 17.8583 5.50011 18.1749 4.96664 18.032L2.23459 17.2999C1.70113 17.157 1.38454 16.6087 1.52749 16.0752C1.67043 15.5417 2.21876 15.2251 2.75223 15.3681L3.15772 15.4767C1.45877 11.1715 3.12129 6.15655 7.25007 3.7728C9.98557 2.19346 13.1804 2.13012 15.8592 3.31853Z" fill="#801ED7"/>
</svg>
